findly-builder/apps/searchassist/src/assets/icons/sidemenu/new-icons/results.svg

<svg width="14" height="14" viewBox="0 0 14 14" fill="none" xmlns="http://www.w3.org/2000/svg">
<path d="M1.61538 0C0.727764 0 0 0.704274 0 1.56325V9.90055C0 10.7595 0.727764 11.4638 1.61538 11.4638H3.23077V14L7.16406 11.4638H12.3846C13.2722 11.4638 14 10.7595 14 9.90055V1.56325C14 0.704274 13.2722 0 12.3846 0H1.61538ZM1.61538 1.04216H12.3846C12.6875 1.04216 12.9231 1.27014 12.9231 1.56325V9.90055C12.9231 10.1937 12.6875 10.4216 12.3846 10.4216H6.83594L4.30769 12.0541V10.4216H1.61538C1.3125 10.4216 1.07692 10.1937 1.07692 9.90055V1.56325C1.07692 1.27014 1.3125 1.04216 1.61538 1.04216ZM7 3.12649L6.17548 4.90957L4.16887 5.11718L5.67067 6.42396L5.25 8.33731L7 7.36028L8.75 8.33731L8.32933 6.42396L9.83113 5.11718L7.82452 4.90957L7 3.12649Z" fill="black"/>
</svg>

<svg width="14" height="14" fill="none" xmlns="http://www.w3.org/2000/svg"><path d="M1.615 0C.728 0 0 .704 0 1.563v8.338c0 .858.728 1.563 1.615 1.563h1.616V14l3.933-2.536h5.22c.888 0 1.616-.705 1.616-1.563V1.563C14 .704 13.272 0 12.385 0H1.615Zm0 1.042h10.77c.303 0 .538.228.538.521v8.338a.523.523 0 0 1-.538.52h-5.55l-2.527 1.633v-1.632H1.615a.523.523 0 0 1-.538-.521V1.563c0-.293.236-.52.538-.52ZM7 3.126 6.175 4.91l-2.006.207L5.67 6.424l-.42 1.913L7 7.36l1.75.977-.42-1.913 1.5-1.307-2.005-.207L7 3.126Z" fill="#000"/></svg>
